!!!OTL: 2127. Des Sultans Toechterlein.
!!!ODT: 1840
!!!ARE: Europa, Mitteleuropa, Deutschland, Schlesien, Glatz
!!!SCT: E2127A
!!!TXL: @@DE
!!!YEM: Copyright 1995, estate of Helmut Schaffrath.
**kern	**text
*ICvox	*
*M3/4	*
*k[f#]	*
*G:	*
!LO:TX:a:t=Mäßig.	!
!LO:TX:a:t=Mündlich aus Schleſten (Grafſchaft Glatʒ) vor 1840.	!
{8d	Ein
=1	=1
8g	Sul-
8g	-tan
4g	hatt
4a	ein
=2	=2
8cc	Töch-
8b	-ter-
4.b}	-lein,
{8cc	die
=3	=3
8b	war
8dd	früh
(8ddqq	.
4cc)	auf-
4b	-ge-
=4	=4
4a	-ſtan-
4g	-den
8r}	.
{8d	Ein
=5	=5
8g	Sul-
8g	-tan
4g	hatt
4a	ein
=6	=6
8cc	Töch-
8b	-ter-
4.b}	-lein,
{8cc	die
=7	=7
8b	war
8dd	früh
(8ddqq	.
4cc)	auf-
4b	-ge-
=8	=8
4a	-ſtan-
4g	-den
8r}	.
{8dd	ʒu
=9	=9
8dd	pflük-
8dd	-ken
4b	ſchö-
4dd	-ne
=10	=10
8dd	Blü-
8b	-me-
4.cc}	-lein
{8cc	in
=11	=11
8b/	ih-
8a	-res
4g	Va-
4a	-ters
=12	=12
4d	Gar-
4g	-ten.
8r}	.
{8dd	ʒu
=13	=13
8dd	pflük-
8dd	-ken
4b	ſchö-
4dd	-ne
=14	=14
8dd	Blü-
8b	-me-
4.cc}	-lein
{8cc	in
=15	=15
8b/	ih-
8a	-res
4g	Va-
4a	-ters
=16	=16
4d	Gar-
4g	-ten.
8r}	.
==	==
!!!AGN: geistlich, Heiligen - Lied, Legende
!!!ONB: ESAC (Essen Associative Code) Database: ERK3
!!!AMT: simple triple
!!!AIN: vox
!!!EED: Helmut Schaffrath
!!!EEV: 1.0
!!!GTL: 4. Katholische Lieder: c) Heiligenlieder (Rufe und Legenden.)
!!!URL-scan: https://rosdok.uni-rostock.de/mcrviewer/recordIdentifier/rosdok_ppn745177999/iview2/phys_0824.iview2?x=188.96815741117916&y=1035.5242711859755&scale=0.7014306698522887&rotation=0&layout=singlePageLayout
!!!ENC: Anna Maria Matuszewska
!!!EEV: 2025/14/01
*-	*-
